X:1
T:Spancil Hill  " "
M:6/8
L:1/8
Q:80
C:Trad. arr. K. Hiestand
S:Slow Air
K:HP
|: e | \
{gef}e2A{gef}e2{A}e | \
{Gdc}d2B{d}G2A | \
{gBd}BdB{gAd}A2G |
{gAd}A3-A2e | \
{A}e2a{g}a2g | \
{ag}a2g{ef}e2f |
{gf}g2a{f}g3/2fe/2 | \
{Gdc}d3-d2e | \
{A}e2a{g}a2g |
{ag}a2g{ef}e2f | \
{gf}g2a{f}g3/2fe/2 | \
{Gdc}d3-dg3/2f/2 |
{gef}e2A{gef}e2{A}e | \
{Gdc}d2B{d}G2A | \
{gBd}BdB{gAd}A2G |
{gAd}A3-A2 :|
